app/dist/common/images/tdk.svg

<svg height="56" viewBox="0 0 56 56" width="56" xmlns="http://www.w3.org/2000/svg"><path d="m0 0h56v56h-56z" fill="#0146ad"/><g fill="#fff"><path d="m45.77 27.81c.07.02.16.08.23.13l6 5.06h-3.82l-5.68-5.2 5.18-4.8h3.62l-5.3 4.69a.57.57 0 0 1 -.23.12zm-18.77-4.81h6.57c3.3 0 5.43 2.16 5.43 5 0 3.16-2.6 5-5.36 5h-6.64zm3 8h3.48c2.15 0 2.98-1.36 2.98-3 0-1.5-.65-3-3.14-3h-3.32zm-14-1.66-4-2.34v-4zm-12 0 4-2.34v-4zm6 1.55-3.8 2.11h7.6zm2-7.89h-4l2 2.11zm0 4-2 3.89 3-.78zm-4 0h4l-2-1.89zm5 3.11.8 2.89 2.2-3.66zm-5-3.11 2 3.89-3-.78zm-1 3.11-.8 2.89-2.2-3.66zm19.5-7.11h-10.5v2h4v8h3v-8h3.5z"/><path d="m43 33v-10h-3v10z"/></g></svg>

<!-- by TradingView --><svg xmlns="http://www.w3.org/2000/svg" width="56" height="56" viewBox="0 0 56 56"><path fill="#0146AD" d="M0 0h56v56H0z"/><path d="M45.77 27.81c.07.02.16.08.23.13L52 33h-3.82L42.5 27.8 47.68 23h3.62L46 27.69a.57.57 0 0 1-.23.12ZM27 23h6.57c3.3 0 5.43 2.16 5.43 5 0 3.16-2.6 5-5.36 5H27V23Zm3 8h3.48c2.15 0 2.98-1.36 2.98-3 0-1.5-.65-3-3.14-3H30v6ZM16 29.34 12 27v-4l4 6.34Zm-12 0L8 27v-4l-4 6.34Zm6 1.55L6.2 33h7.6L10 30.89ZM12 23H8l2 2.11L12 23Zm0 4-2 3.89 3-.78L12 27Zm-4 0h4l-2-1.89L8 27Zm5 3.11.8 2.89 2.2-3.66-3 .77ZM8 27l2 3.89-3-.78L8 27Zm-1 3.11L6.2 33 4 29.34l3 .77ZM26.5 23H16v2h4v8h3v-8h3.5v-2Z" fill="#fff"/><path d="M43 33V23h-3v10h3Z" fill="#fff"/></svg>
